src/containers/site/SiteRobotsScreen/asset/bitstamp.svg

<svg width="148" height="34" viewBox="0 0 148 34" fill="none" xmlns="http://www.w3.org/2000/svg">
<g clip-path="url(#clip0)">
<path d="M0 33.3986H128.119V30.0439H0V33.3986Z" fill="#B5B5B5"/>
<path d="M136.999 33.3986H148V30.0439H136.999V33.3986Z" fill="#B5B5B5"/>
<path d="M24.9625 24.9627H29.5506V7.696H24.9625V24.9627ZM24.5186 2.71333C24.5186 1.924 24.7652 1.28267 25.3079 0.74C25.8012 0.246667 26.4919 0 27.2812 0C28.1199 0 28.7612 0.246667 29.2545 0.74C29.7479 1.23333 30.0439 1.87467 30.0439 2.71333C30.0439 3.50267 29.7972 4.144 29.2545 4.68667C28.7612 5.18 28.0705 5.42667 27.2812 5.42667C26.4919 5.42667 25.8505 5.18 25.3079 4.68667C24.7652 4.19333 24.5186 3.50267 24.5186 2.71333Z" fill="#B5B5B5"/>
<path d="M40.1081 7.64661H44.7947V11.0999H40.1081V19.3879C40.1081 20.1279 40.3054 20.7199 40.7494 21.1639C41.1934 21.6079 41.736 21.8546 42.476 21.8546C43.1174 21.8546 43.8574 21.756 44.6467 21.5586L45.2387 24.9626C43.9067 25.308 42.6241 25.5053 41.3907 25.5053C40.5521 25.5053 39.7627 25.3573 39.0721 25.1106C38.3814 24.8639 37.7894 24.4693 37.2467 23.976C36.7534 23.4826 36.3587 22.8906 36.0627 22.1999C35.7667 21.5093 35.6681 20.7693 35.6681 19.9306V11.1986H32.5107V7.74528H35.6681V2.66394H40.0587V7.64661H40.1081Z" fill="#B5B5B5"/>
<path d="M47.5083 12.432C47.5083 11.692 47.6563 10.952 48.0017 10.3107C48.347 9.66932 48.791 9.12665 49.3337 8.63332C49.9257 8.18932 50.6164 7.79465 51.4057 7.54798C52.195 7.30131 53.1323 7.15332 54.0697 7.15332C55.0563 7.15332 56.0923 7.25199 57.1283 7.44932C58.1643 7.64666 59.2497 7.94265 60.335 8.33732L59.3483 11.5933C58.5097 11.248 57.671 11.0013 56.8324 10.804C55.9937 10.6067 55.2044 10.508 54.4644 10.508C53.675 10.508 53.0337 10.656 52.5404 11.0013C52.047 11.3466 51.8497 11.7907 51.8497 12.3827C51.8497 12.9253 52.0964 13.32 52.5404 13.5667C52.9844 13.8133 53.527 14.06 54.2177 14.2573C54.9084 14.4546 55.599 14.652 56.3883 14.8C57.1777 14.9973 57.9177 15.2933 58.559 15.688C59.2497 16.0826 59.7923 16.6253 60.2363 17.2667C60.6803 17.9573 60.927 18.8453 60.927 19.9306C60.927 20.72 60.779 21.4106 60.4337 22.1013C60.0884 22.7426 59.6444 23.3346 59.0524 23.828C58.4604 24.3213 57.7697 24.6667 56.8817 24.9627C56.043 25.2093 55.1057 25.3573 54.119 25.3573C51.9977 25.3573 49.7284 24.9133 47.3604 23.976L48.2977 20.7693C50.3204 21.608 52.1457 22.0027 53.7737 22.0027C54.6124 22.0027 55.303 21.8053 55.7963 21.46C56.2897 21.1147 56.5363 20.6213 56.5363 19.98C56.5363 19.4373 56.2897 19.0427 55.8457 18.7467C55.4017 18.4507 54.859 18.204 54.1683 18.0067C53.4777 17.8093 52.787 17.612 51.9977 17.4146C51.2084 17.2173 50.5177 16.9213 49.827 16.5267C49.1364 16.132 48.5937 15.6386 48.1497 14.9973C47.7057 14.4053 47.5083 13.5173 47.5083 12.432Z" fill="#B5B5B5"/>
<path d="M70.152 7.64661H74.8387V11.0999H70.152V19.3879C70.152 20.1279 70.3494 20.7199 70.7934 21.1639C71.2374 21.6079 71.78 21.8546 72.52 21.8546C73.1614 21.8546 73.9014 21.756 74.6907 21.5586L75.2827 24.9626C73.9507 25.308 72.668 25.5053 71.4347 25.5053C70.596 25.5053 69.8067 25.3573 69.116 25.1106C68.4253 24.8639 67.8334 24.4693 67.2907 23.976C66.748 23.4826 66.4027 22.8906 66.1067 22.1999C65.8107 21.5093 65.712 20.7693 65.712 19.9306V11.1986H62.5547V7.74528H65.712V2.66394H70.1027V7.64661H70.152Z" fill="#B5B5B5"/>
<path d="M82.0908 19.6841C82.0908 20.3747 82.3868 20.9667 82.9295 21.4601C83.5215 21.9534 84.2122 22.2001 85.0508 22.2001C86.2348 22.2001 87.1722 21.8054 87.9122 21.0654C88.6522 20.3254 88.9975 19.3387 88.9975 18.1547V17.1187C88.1588 16.8721 87.2215 16.7734 86.1855 16.7734C84.9028 16.7734 83.9161 17.0201 83.1761 17.5627C82.4855 18.0561 82.0908 18.7961 82.0908 19.6841ZM77.7988 19.9307C77.7988 18.1054 78.4895 16.6747 79.8708 15.6881C81.2522 14.7014 83.1762 14.2081 85.6922 14.2081C86.2348 14.2081 86.7775 14.2574 87.3202 14.3067C87.8628 14.3561 88.4548 14.4547 88.9975 14.5534V13.6161C88.9975 12.7281 88.7015 11.9881 88.0602 11.4454C87.4188 10.9027 86.5802 10.6067 85.4948 10.6067C83.7682 10.6067 81.8935 11.0014 79.8708 11.8401L78.7361 8.68274C81.2028 7.69607 83.6202 7.25208 85.9882 7.25208C87.0735 7.25208 88.0108 7.40008 88.8988 7.74541C89.7868 8.04141 90.5268 8.4854 91.1682 9.0774C91.8095 9.62007 92.3028 10.3107 92.6482 11.1001C92.9935 11.8894 93.1908 12.7774 93.1908 13.7147V20.7694C93.1908 21.1641 93.2895 21.4601 93.4868 21.6574C93.6842 21.9041 93.9802 22.0027 94.3748 22.0027C94.5722 22.0027 94.7202 22.0027 94.9175 21.9534C95.0655 21.9534 95.2135 21.9041 95.2628 21.9041L95.5588 25.2094C95.1642 25.2587 94.8188 25.3574 94.4242 25.4067C94.0295 25.4561 93.6348 25.4561 93.1908 25.4561C92.3028 25.4561 91.5628 25.2587 90.9215 24.8147C90.2802 24.4201 89.8362 23.8281 89.5402 23.0881C88.8002 23.8281 87.9122 24.4201 86.9748 24.8147C85.9882 25.2094 85.0015 25.4067 83.9161 25.4067C83.0281 25.4067 82.1895 25.2587 81.4495 25.0121C80.7095 24.7654 80.0682 24.3707 79.5255 23.8774C78.9828 23.3841 78.5882 22.8414 78.2922 22.1507C77.9468 21.4601 77.7988 20.7201 77.7988 19.9307Z" fill="#B5B5B5"/>
<path d="M98.1236 7.59732H101.676L102.218 9.96533C102.909 9.07733 103.698 8.38665 104.685 7.89332C105.672 7.39999 106.708 7.15332 107.842 7.15332C109.125 7.15332 110.21 7.44933 111.197 7.99199C112.134 8.53466 112.874 9.32398 113.368 10.3107C114.157 9.27465 115.094 8.48532 116.13 7.94266C117.166 7.39999 118.301 7.15332 119.584 7.15332C120.521 7.15332 121.36 7.30132 122.149 7.59732C122.938 7.89332 123.629 8.33732 124.172 8.92932C124.764 9.47199 125.208 10.1627 125.504 10.952C125.8 11.7413 125.997 12.58 125.997 13.5173V24.9627H121.508V14.2573C121.508 13.2707 121.212 12.4813 120.57 11.84C119.929 11.248 119.14 10.9027 118.153 10.9027C117.018 10.9027 116.081 11.2973 115.341 12.0867C114.601 12.876 114.256 13.8627 114.256 15.1453V24.9627H109.766V14.2573C109.766 13.2707 109.47 12.4813 108.878 11.84C108.286 11.248 107.497 10.9027 106.51 10.9027C105.326 10.9027 104.389 11.2973 103.649 12.0867C102.909 12.876 102.564 13.8627 102.564 15.1453V24.9627H98.0742V7.59732H98.1236Z" fill="#B5B5B5"/>
<path d="M143.067 16.2307C143.067 15.4413 142.968 14.7013 142.722 14.0107C142.524 13.32 142.179 12.728 141.784 12.284C141.39 11.7907 140.946 11.4453 140.403 11.1493C139.86 10.8533 139.268 10.7546 138.627 10.7546C137.443 10.7546 136.506 11.1493 135.716 11.988C134.976 12.7773 134.582 13.8133 134.582 15.096V17.4146C134.582 18.056 134.68 18.648 134.878 19.1413C135.075 19.684 135.371 20.128 135.716 20.5227C136.062 20.9173 136.506 21.2133 136.999 21.4107C137.492 21.608 138.035 21.7067 138.627 21.7067C139.268 21.7067 139.86 21.5587 140.403 21.312C140.946 21.0653 141.39 20.6707 141.784 20.1773C142.179 19.684 142.475 19.092 142.722 18.4507C142.968 17.8093 143.067 17.02 143.067 16.2307ZM130.24 7.59732H133.792L134.335 9.81732C134.976 8.97865 135.716 8.33732 136.654 7.84398C137.591 7.39998 138.627 7.15332 139.762 7.15332C140.896 7.15332 141.932 7.39998 142.919 7.84398C143.856 8.28798 144.695 8.92933 145.386 9.71866C146.076 10.508 146.619 11.4453 147.014 12.58C147.408 13.6653 147.606 14.8987 147.606 16.2307C147.606 17.5627 147.408 18.796 147.014 19.8813C146.619 20.9666 146.076 21.9533 145.386 22.7427C144.695 23.532 143.856 24.1733 142.919 24.6173C141.982 25.0613 140.896 25.308 139.762 25.308C138.726 25.308 137.739 25.1107 136.9 24.716C136.012 24.3213 135.272 23.7293 134.68 22.94V33.448H130.24V7.59732Z" fill="#B5B5B5"/>
<path d="M15.096 20.5227C14.4053 21.2134 13.468 21.5094 12.284 21.5094H6.75867V14.356H12.284C13.4187 14.356 14.356 14.7014 15.096 15.3427C15.7867 15.984 16.132 16.872 16.132 17.908C16.1813 18.9934 15.836 19.8814 15.096 20.5227ZM6.75867 4.68671H11.84C12.876 4.68671 13.7147 4.98271 14.4053 5.62404C15.096 6.21604 15.392 7.05471 15.392 8.04137C15.392 9.02804 15.0467 9.81738 14.4053 10.4094C13.7147 11.0014 12.876 11.2974 11.84 11.2974H6.75867V4.68671ZM19.6347 14.8C18.8947 13.764 17.908 13.024 16.6747 12.58C17.6613 12.136 18.4013 11.4947 18.9933 10.6067C19.5853 9.71871 19.8813 8.68272 19.8813 7.49872C19.8813 6.56138 19.684 5.72271 19.3387 4.98271C18.9933 4.19338 18.4507 3.55205 17.8093 3.00938C17.168 2.46671 16.3787 2.02271 15.4907 1.72671C14.6027 1.43071 13.616 1.28271 12.5307 1.28271H0V4.44005C1.924 4.44005 3.45333 6.01871 3.45333 7.94271C3.45333 9.86671 1.924 11.4454 0 11.4454V14.3067C1.924 14.3067 3.45333 15.8854 3.45333 17.8094V18.3521C3.45333 20.2761 1.924 21.8547 0 21.8547V25.0121H13.0733C14.208 25.0121 15.1947 24.864 16.132 24.5187C17.0693 24.2227 17.8587 23.7787 18.5493 23.1867C19.24 22.5947 19.7827 21.904 20.128 21.1147C20.5227 20.3254 20.72 19.4374 20.72 18.4507C20.72 17.02 20.3747 15.836 19.6347 14.8Z" fill="#B5B5B5"/>
</g>
<defs>
<clipPath id="clip0">
<rect width="148" height="33.448" fill="white"/>
</clipPath>
</defs>
</svg>

<svg width="148" height="34" fill="none" xmlns="http://www.w3.org/2000/svg"><g clip-path="url(#clip0)" fill="#B5B5B5"><path d="M0 33.399h128.119v-3.355H0v3.355zM136.999 33.399H148v-3.355h-11.001v3.355zM24.962 24.963h4.589V7.696h-4.588v17.267zm-.443-22.25c0-.789.246-1.43.789-1.973C25.8.247 26.492 0 27.28 0c.839 0 1.48.247 1.974.74.493.493.789 1.135.789 1.973 0 .79-.247 1.431-.79 1.974-.493.493-1.184.74-1.973.74-.79 0-1.43-.247-1.973-.74-.543-.494-.79-1.184-.79-1.974zM40.108 7.647h4.687V11.1h-4.687v8.288c0 .74.197 1.332.641 1.776.444.444.987.69 1.727.69.641 0 1.381-.098 2.17-.295l.593 3.404c-1.332.345-2.615.542-3.848.542a6.922 6.922 0 01-2.319-.394c-.69-.247-1.283-.642-1.825-1.135a5.6 5.6 0 01-1.184-1.776c-.296-.69-.395-1.43-.395-2.27V11.2h-3.157V7.745h3.157V2.664h4.39v4.983h.05zM47.508 12.432c0-.74.148-1.48.494-2.121a6.246 6.246 0 011.332-1.678 6.892 6.892 0 012.072-1.085 9.14 9.14 0 012.664-.395c.986 0 2.022.099 3.058.296a20.87 20.87 0 013.207.888l-.987 3.256a16.436 16.436 0 00-2.516-.789 10.362 10.362 0 00-2.368-.296c-.789 0-1.43.148-1.924.493-.493.346-.69.79-.69 1.382 0 .542.246.937.69 1.184.444.246.987.493 1.678.69.69.198 1.381.395 2.17.543a7.72 7.72 0 012.171.888c.69.395 1.233.937 1.677 1.579.444.69.691 1.578.691 2.664 0 .789-.148 1.48-.493 2.17a5.77 5.77 0 01-1.382 1.727c-.592.493-1.282.839-2.17 1.135a9.836 9.836 0 01-2.763.394c-2.121 0-4.39-.444-6.759-1.381l.938-3.207c2.022.839 3.848 1.234 5.476 1.234.838 0 1.529-.198 2.022-.543.494-.345.74-.839.74-1.48 0-.543-.246-.937-.69-1.233-.444-.296-.987-.543-1.678-.74a64.902 64.902 0 00-2.17-.592 8.377 8.377 0 01-2.171-.888 4.995 4.995 0 01-1.677-1.53c-.444-.592-.642-1.48-.642-2.565zM70.152 7.647h4.687V11.1h-4.687v8.288c0 .74.197 1.332.641 1.776.444.444.987.69 1.727.69.641 0 1.381-.098 2.17-.295l.593 3.404c-1.332.345-2.615.542-3.848.542a6.923 6.923 0 01-2.319-.394c-.69-.247-1.283-.642-1.825-1.135-.543-.493-.888-1.085-1.184-1.776-.296-.69-.395-1.43-.395-2.27V11.2h-3.157V7.745h3.157V2.664h4.39v4.983h.05zM82.09 19.684c0 .69.297 1.283.84 1.776.591.493 1.282.74 2.12.74 1.185 0 2.122-.395 2.862-1.135.74-.74 1.085-1.726 1.085-2.91v-1.036c-.838-.247-1.775-.346-2.811-.346-1.283 0-2.27.247-3.01.79a2.53 2.53 0 00-1.085 2.121zm-4.291.247c0-1.826.69-3.256 2.072-4.243 1.381-.987 3.305-1.48 5.821-1.48.543 0 1.086.05 1.628.099.543.05 1.135.148 1.678.246v-.937c0-.888-.297-1.628-.938-2.17-.641-.543-1.48-.84-2.565-.84-1.727 0-3.602.395-5.624 1.234l-1.135-3.157c2.467-.987 4.884-1.43 7.252-1.43 1.085 0 2.023.147 2.91.492.889.296 1.629.74 2.27 1.332a5.518 5.518 0 011.48 2.023c.346.79.543 1.677.543 2.615v7.054c0 .395.099.691.296.888.197.247.493.346.888.346.197 0 .345 0 .543-.05.147 0 .295-.049.345-.049l.296 3.305c-.395.05-.74.148-1.135.198-.395.05-.79.05-1.233.05-.888 0-1.628-.198-2.27-.642-.64-.395-1.085-.987-1.38-1.727a8.108 8.108 0 01-2.566 1.727 8.04 8.04 0 01-3.059.592 7.836 7.836 0 01-2.466-.395 5.377 5.377 0 01-1.925-1.135 4.816 4.816 0 01-1.233-1.726c-.345-.69-.493-1.43-.493-2.22zM98.124 7.597h3.552l.542 2.368c.691-.888 1.48-1.578 2.467-2.072a6.916 6.916 0 013.157-.74c1.283 0 2.368.296 3.355.839a5.482 5.482 0 012.171 2.319c.789-1.036 1.726-1.826 2.762-2.368 1.036-.543 2.171-.79 3.454-.79.937 0 1.776.148 2.565.444.789.296 1.48.74 2.023 1.332.592.543 1.036 1.234 1.332 2.023.296.79.493 1.628.493 2.565v11.446h-4.489V14.257c0-.986-.296-1.776-.938-2.417-.641-.592-1.43-.937-2.417-.937-1.135 0-2.072.394-2.812 1.184-.74.789-1.085 1.776-1.085 3.058v9.818h-4.49V14.257c0-.986-.296-1.776-.888-2.417-.592-.592-1.381-.937-2.368-.937-1.184 0-2.121.394-2.861 1.184-.74.789-1.085 1.776-1.085 3.058v9.818h-4.49V7.597h.05z"/><path d="M143.067 16.23c0-.789-.099-1.529-.345-2.22a4.47 4.47 0 00-.938-1.726 4.357 4.357 0 00-1.381-1.135c-.543-.296-1.135-.394-1.776-.394-1.184 0-2.121.394-2.911 1.233-.74.79-1.134 1.825-1.134 3.108v2.319c0 .641.098 1.233.296 1.726.197.543.493.987.838 1.382.346.394.79.69 1.283.888a4.345 4.345 0 001.628.296c.641 0 1.233-.148 1.776-.395.543-.247.987-.641 1.381-1.135.395-.493.691-1.085.938-1.726.246-.642.345-1.431.345-2.22zM130.24 7.598h3.552l.543 2.22a6.87 6.87 0 012.319-1.973 7.179 7.179 0 013.108-.69 7.57 7.57 0 013.157.69 7.63 7.63 0 012.467 1.875c.69.789 1.233 1.726 1.628 2.861.394 1.085.592 2.319.592 3.65 0 1.333-.198 2.566-.592 3.651-.395 1.086-.938 2.072-1.628 2.862a7.63 7.63 0 01-2.467 1.874 7.401 7.401 0 01-3.157.691c-1.036 0-2.023-.197-2.862-.592a5.557 5.557 0 01-2.22-1.776v10.508h-4.44V7.598zM15.096 20.523c-.69.69-1.628.986-2.812.986H6.759v-7.153h5.525c1.135 0 2.072.345 2.812.987.69.641 1.036 1.529 1.036 2.565.05 1.085-.296 1.973-1.036 2.615zM6.759 4.687h5.081c1.036 0 1.875.296 2.565.937.691.592.987 1.43.987 2.417 0 .987-.345 1.776-.987 2.368-.69.592-1.529.888-2.565.888H6.759v-6.61zM19.635 14.8c-.74-1.036-1.727-1.776-2.96-2.22a5.314 5.314 0 002.318-1.973c.592-.888.888-1.924.888-3.108 0-.938-.197-1.776-.542-2.516-.346-.79-.888-1.43-1.53-1.974a7.038 7.038 0 00-2.318-1.282c-.888-.296-1.875-.444-2.96-.444H0V4.44c1.924 0 3.453 1.579 3.453 3.503 0 1.924-1.529 3.502-3.453 3.502v2.862c1.924 0 3.453 1.578 3.453 3.502v.543c0 1.924-1.529 3.503-3.453 3.503v3.157h13.073c1.135 0 2.122-.148 3.059-.493a6.78 6.78 0 002.417-1.332c.691-.592 1.234-1.283 1.579-2.072.395-.79.592-1.678.592-2.664 0-1.431-.345-2.615-1.085-3.651z"/></g><defs><clipPath id="clip0"><path fill="#fff" d="M0 0h148v33.448H0z"/></clipPath></defs></svg>
